Dominus_Dark_Funeral/22/apps/mate-eiciel.svg

<svg xmlns="http://www.w3.org/2000/svg" width="24" height="24" viewBox="0 0 6.35 6.35"><defs><linearGradient id="a"><stop offset="0"/><stop offset="1" stop-opacity="0"/></linearGradient></defs><path d="M3.13.15c-.86 0-1.56.7-1.56 1.55 0 .5.25.92.61 1.21l-.46.71C1.52 3.95.68 5.5.86 5.83c.18.32 1.92.37 2.28.37.38 0 2.15-.04 2.35-.37.19-.31-.64-1.84-.83-2.16l-.52-.8c.33-.3.55-.7.55-1.17 0-.86-.7-1.55-1.56-1.55zm.1 3.21c.33 0 .56.13.7.37.1.19.15.46.15.84H2.86a1.05 1.05 0 0 0 .07.27c.1.22.28.32.56.32.16 0 .37-.03.58-.12v.39c-.23.08-.46.12-.68.12-.34 0-.63-.11-.83-.3-.2-.2-.3-.48-.3-.82 0-.32.09-.58.27-.77a.88.88 0 0 1 .7-.3zm0 .36c-.14 0-.22.06-.3.19-.03.08-.06.19-.08.34h.68c0-.17-.02-.3-.06-.37-.05-.1-.13-.16-.24-.16z" fill="#e6e6e6" stroke-width=".79"/></svg>

<?xml version="1.0" encoding="UTF-8" standalone="no"?>
<svg
   xmlns:dc="http://purl.org/dc/elements/1.1/"
   xmlns:cc="http://creativecommons.org/ns#"
   xmlns:rdf="http://www.w3.org/1999/02/22-rdf-syntax-ns#"
   xmlns:svg="http://www.w3.org/2000/svg"
   xmlns="http://www.w3.org/2000/svg"
   xmlns:sodipodi="http://sodipodi.sourceforge.net/DTD/sodipodi-0.dtd"
   xmlns:inkscape="http://www.inkscape.org/namespaces/inkscape"
   width="24"
   height="24"
   viewBox="0 0 6.35 6.35"
   version="1.1"
   id="svg11"
   sodipodi:docname="mate-eiciel.svg"
   inkscape:version="0.92.4 (5da689c313, 2019-01-14)">
  <metadata
     id="metadata15">
    <rdf:RDF>
      <cc:Work
         rdf:about="">
        <dc:format>image/svg+xml</dc:format>
        <dc:type
           rdf:resource="http://purl.org/dc/dcmitype/StillImage" />
        <dc:title></dc:title>
      </cc:Work>
    </rdf:RDF>
  </metadata>
  <sodipodi:namedview
     pagecolor="#ffffff"
     bordercolor="#666666"
     borderopacity="1"
     objecttolerance="10"
     gridtolerance="10"
     guidetolerance="10"
     inkscape:pageopacity="0"
     inkscape:pageshadow="2"
     inkscape:window-width="1138"
     inkscape:window-height="480"
     id="namedview13"
     showgrid="false"
     inkscape:zoom="9.8333333"
     inkscape:cx="1.0677966"
     inkscape:cy="12"
     inkscape:window-x="0"
     inkscape:window-y="25"
     inkscape:window-maximized="0"
     inkscape:current-layer="svg11" />
  <defs
     id="defs7">
    <linearGradient
       id="a">
      <stop
         offset="0"
         id="stop2" />
      <stop
         offset="1"
         stop-opacity="0"
         id="stop4" />
    </linearGradient>
  </defs>
  <path
     d="m 3.13,0.15 c -0.86,0 -1.56,0.7 -1.56,1.55 0,0.5 0.25,0.92 0.61,1.21 L 1.72,3.62 C 1.52,3.95 0.68,5.5 0.86,5.83 1.04,6.15 2.78,6.2 3.14,6.2 3.52,6.2 5.29,6.16 5.49,5.83 5.68,5.52 4.85,3.99 4.66,3.67 L 4.14,2.87 C 4.47,2.57 4.69,2.17 4.69,1.7 4.69,0.84 3.99,0.15 3.13,0.15 Z m 0.1,3.21 c 0.33,0 0.56,0.13 0.7,0.37 0.1,0.19 0.15,0.46 0.15,0.84 H 2.86 a 1.05,1.05 0 0 0 0.07,0.27 c 0.1,0.22 0.28,0.32 0.56,0.32 0.16,0 0.37,-0.03 0.58,-0.12 V 5.43 C 3.84,5.51 3.61,5.55 3.39,5.55 3.05,5.55 2.76,5.44 2.56,5.25 2.36,5.05 2.26,4.77 2.26,4.43 2.26,4.11 2.35,3.85 2.53,3.66 a 0.88,0.88 0 0 1 0.7,-0.3 z m 0,0.36 C 3.09,3.72 3.01,3.78 2.93,3.91 2.9,3.99 2.87,4.1 2.85,4.25 H 3.53 C 3.53,4.08 3.51,3.95 3.47,3.88 3.42,3.78 3.34,3.72 3.23,3.72 Z"
     id="path9"
     inkscape:connector-curvature="0"
     style="fill:#e6e6e6;stroke-width:0.79000002" />
</svg>
